img/aboutus_goals_pattern.svg

<svg width="1310" height="838" viewBox="0 0 1310 838" fill="none" xmlns="http://www.w3.org/2000/svg">
<path opacity="0.8" d="M1196.01 688.019C1180.99 687.993 1166.57 693.903 1155.89 704.46C1145.21 715.017 1139.14 729.366 1139 744.38V745.454C1139.06 756.908 1142.59 768.075 1149.1 777.493C1155.62 786.912 1164.84 794.143 1175.54 798.239C1186.24 802.335 1197.92 803.106 1209.07 800.45C1220.21 797.794 1230.3 791.835 1238 783.354C1238.27 783.124 1238.4 782.932 1238.36 782.932L1238.69 782.529L1238.86 782.318L1239.07 782.088L1242.32 777.962C1242.58 777.733 1242.81 777.468 1243.01 777.175C1248.88 768.621 1252.3 758.626 1252.9 748.269C1253.51 737.913 1251.27 727.588 1246.43 718.41C1241.6 709.232 1234.34 701.548 1225.46 696.189C1216.57 690.83 1206.39 687.998 1196.01 688V688.019ZM1226.73 773.011C1221.09 779.185 1213.73 783.522 1205.6 785.457C1197.47 787.392 1188.94 786.836 1181.13 783.862C1173.31 780.887 1166.58 775.632 1161.79 768.779C1157.01 761.925 1154.4 753.792 1154.3 745.435V744.533C1154.58 733.629 1159.12 723.268 1166.95 715.672C1174.78 708.076 1185.28 703.85 1196.19 703.9C1207.1 703.95 1217.56 708.272 1225.32 715.94C1233.08 723.608 1237.53 734.01 1237.71 744.917C1237.71 753.245 1235.19 761.379 1230.49 768.252L1227.04 772.589L1226.77 772.992L1226.73 773.011Z" fill="#4EBA66" fill-opacity="0.08"/>
<path opacity="0.3" d="M82.0138 83.0192C66.9943 82.9932 52.5734 88.9028 41.8938 99.46C31.2142 110.017 25.1418 124.366 25 139.38V140.454C25.0633 151.908 28.5851 163.075 35.1044 172.493C41.6237 181.912 50.8364 189.143 61.536 193.239C72.2356 197.335 83.9233 198.106 95.0684 195.45C106.214 192.794 116.296 186.835 123.997 178.354C124.266 178.124 124.4 177.932 124.361 177.932L124.688 177.529L124.861 177.318L125.072 177.088L128.316 172.962C128.581 172.733 128.814 172.468 129.007 172.175C134.878 163.621 138.3 153.626 138.903 143.269C139.507 132.913 137.27 122.588 132.433 113.41C127.597 104.232 120.344 96.548 111.458 91.1888C102.573 85.8295 92.3915 82.9981 82.0138 83V83.0192ZM112.728 168.011C107.094 174.185 99.732 178.522 91.5992 180.457C83.4665 182.392 74.9394 181.836 67.1269 178.862C59.3143 175.887 52.5778 170.632 47.7933 163.779C43.0088 156.925 40.3978 148.792 40.2997 140.435V139.533C40.5785 128.629 45.1206 118.268 52.952 110.672C60.7834 103.076 71.2804 98.8496 82.1922 98.8998C93.104 98.95 103.562 103.272 111.323 110.94C119.084 118.608 123.53 129.01 123.709 139.917C123.71 148.245 121.194 156.379 116.491 163.252L113.036 167.589L112.767 167.992L112.728 168.011Z" fill="#4EBA66" fill-opacity="0.1"/>
<path opacity="0.6" d="M1148.99 766H956.915C947.378 765.976 938.241 762.172 931.507 755.423C924.774 748.673 920.995 739.53 921 729.999V680.253C921.006 675.347 922.022 670.494 923.982 665.996C925.943 661.498 928.807 657.45 932.398 654.104L932.633 653.886C936.368 650.551 940.712 647.969 945.427 646.281L946.025 646.027C949.54 644.908 953.208 644.339 956.897 644.343H1022.71C1039.05 644.348 1054.97 639.188 1068.2 629.603C1081.43 620.017 1091.28 606.497 1096.35 590.975C1096.75 589.71 1097.49 588.579 1098.49 587.704C1099.48 586.829 1100.7 586.244 1102.01 586.013C1102.2 585.996 1102.39 585.996 1102.59 586.013H1103.29C1104.38 586.017 1105.46 586.257 1106.44 586.717C1107.43 587.176 1108.3 587.845 1109 588.675L1177.03 673.607C1182.19 680.022 1185.01 688.01 1185 696.244V729.999C1185 734.726 1184.07 739.407 1182.26 743.775C1180.46 748.142 1177.8 752.111 1174.46 755.454C1171.12 758.798 1167.15 761.45 1162.78 763.259C1158.41 765.069 1153.72 766 1148.99 766ZM935.37 713.121V729.999C935.365 735.695 937.621 741.161 941.643 745.198C945.665 749.234 951.125 751.512 956.825 751.531H1148.99C1154.7 751.516 1160.17 749.242 1164.19 745.205C1168.22 741.169 1170.49 735.7 1170.49 729.999V696.207C1170.42 691.278 1168.71 686.511 1165.63 682.662L1105.27 607.274C1097.72 622.745 1085.97 635.782 1071.36 644.893C1056.75 654.004 1039.86 658.821 1022.64 658.794C1021.9 658.794 1021.23 658.794 1020.39 658.794C1020.07 658.817 1019.75 658.817 1019.43 658.794H956.825C954.746 658.808 952.679 659.107 950.682 659.681C947.553 660.765 944.671 662.458 942.201 664.661C940.047 666.648 938.329 669.06 937.153 671.743C935.977 674.426 935.37 677.324 935.37 680.253V711.347C935.423 711.603 935.453 711.864 935.46 712.125C935.465 712.46 935.435 712.793 935.37 713.121Z" fill="#00589B" fill-opacity="0.05"/>
<path opacity="0.3" d="M1273.99 13H1081.92C1072.38 13.024 1063.24 16.8281 1056.51 23.5775C1049.77 30.3269 1046 39.4702 1046 49.0009V98.7467C1046.01 103.653 1047.02 108.506 1048.98 113.004C1050.94 117.502 1053.81 121.55 1057.4 124.896L1057.63 125.114C1061.37 128.449 1065.71 131.031 1070.43 132.719L1071.02 132.973C1074.54 134.092 1078.21 134.661 1081.9 134.657H1147.71C1164.05 134.652 1179.97 139.812 1193.2 149.397C1206.43 158.983 1216.28 172.503 1221.35 188.025C1221.75 189.29 1222.49 190.421 1223.49 191.296C1224.48 192.171 1225.7 192.756 1227.01 192.987C1227.2 193.004 1227.39 193.004 1227.59 192.987H1228.29C1229.38 192.983 1230.46 192.743 1231.44 192.283C1232.43 191.824 1233.3 191.155 1234 190.325L1302.03 105.393C1307.19 98.9777 1310.01 90.99 1310 82.7563V49.0009C1310 44.2741 1309.07 39.5931 1307.26 35.2253C1305.46 30.8576 1302.8 26.8888 1299.46 23.5455C1296.12 20.2023 1292.15 17.5502 1287.78 15.7407C1283.41 13.9313 1278.72 13 1273.99 13ZM1060.37 65.8786V49.0009C1060.36 43.3045 1062.62 37.8388 1066.64 33.8023C1070.66 29.7659 1076.12 27.4884 1081.82 27.4692H1273.99C1279.7 27.4836 1285.17 29.7584 1289.19 33.7949C1293.22 37.8313 1295.49 43.2997 1295.49 49.0009V82.7926C1295.42 87.7221 1293.71 92.489 1290.63 96.3382L1230.27 171.726C1222.72 156.255 1210.97 143.218 1196.36 134.107C1181.75 124.996 1164.86 120.179 1147.64 120.206C1146.9 120.206 1146.23 120.206 1145.39 120.206C1145.07 120.183 1144.75 120.183 1144.43 120.206H1081.82C1079.75 120.192 1077.68 119.893 1075.68 119.319C1072.55 118.235 1069.67 116.542 1067.2 114.339C1065.05 112.352 1063.33 109.94 1062.15 107.257C1060.98 104.574 1060.37 101.676 1060.37 98.7467V67.6533C1060.42 67.3969 1060.45 67.1364 1060.46 66.8746C1060.47 66.5404 1060.43 66.2066 1060.37 65.8786Z" fill="#4EBA66" fill-opacity="0.1"/>
<path opacity="0.3" d="M36.0058 658H228.085C237.622 658.024 246.759 661.828 253.493 668.577C260.226 675.327 264.005 684.47 264 694.001V743.747C263.994 748.653 262.978 753.506 261.018 758.004C259.057 762.502 256.193 766.55 252.602 769.896L252.367 770.114C248.632 773.449 244.288 776.031 239.573 777.719L238.975 777.973C235.46 779.092 231.792 779.661 228.103 779.657H162.289C145.95 779.652 130.028 784.812 116.801 794.397C103.574 803.983 93.7192 817.503 88.6463 833.025C88.2486 834.29 87.5111 835.421 86.5142 836.296C85.5173 837.171 84.2992 837.756 82.9926 837.987C82.7998 838.004 82.6057 838.004 82.4128 837.987H81.7061C80.6184 837.983 79.5446 837.743 78.559 837.283C77.5733 836.824 76.6995 836.155 75.9981 835.325L7.97308 750.393C2.80826 743.978 -0.00518799 735.99 0 727.756V694.001C-0.00238037 689.274 0.927185 684.593 2.73557 680.225C4.54398 675.858 7.19577 671.889 10.5394 668.546C13.8831 665.202 17.8531 662.55 22.2228 660.741C26.5924 658.931 31.2759 658 36.0058 658ZM249.63 710.879V694.001C249.635 688.305 247.379 682.839 243.357 678.802C239.335 674.766 233.875 672.488 228.175 672.469H36.0058C30.301 672.484 24.8347 674.758 20.8059 678.795C16.7771 682.831 14.5146 688.3 14.5147 694.001V727.793C14.5798 732.722 16.2888 737.489 19.371 741.338L79.7309 816.726C87.278 801.255 99.0297 788.218 113.642 779.107C128.255 769.996 145.138 765.179 162.361 765.206C163.104 765.206 163.775 765.206 164.608 765.206C164.928 765.183 165.249 765.183 165.569 765.206H228.175C230.254 765.192 232.321 764.893 234.318 764.319C237.447 763.235 240.329 761.542 242.799 759.339C244.953 757.352 246.671 754.94 247.847 752.257C249.023 749.574 249.63 746.676 249.63 743.747V712.653C249.577 712.397 249.547 712.136 249.54 711.875C249.535 711.54 249.565 711.207 249.63 710.879Z" fill="#4EBA66" fill-opacity="0.1"/>
<path opacity="0.6" d="M708.006 412H900.085C909.622 412.024 918.759 415.828 925.493 422.577C932.226 429.327 936.005 438.47 936 448.001V497.747C935.994 502.653 934.978 507.506 933.018 512.004C931.057 516.502 928.193 520.55 924.602 523.896L924.367 524.114C920.632 527.449 916.288 530.031 911.573 531.719L910.975 531.973C907.46 533.092 903.792 533.661 900.103 533.657H834.289C817.95 533.652 802.028 538.812 788.801 548.397C775.574 557.983 765.719 571.503 760.646 587.025C760.249 588.29 759.511 589.421 758.514 590.296C757.517 591.171 756.299 591.756 754.993 591.987C754.8 592.004 754.606 592.004 754.413 591.987H753.706C752.618 591.983 751.545 591.743 750.559 591.283C749.573 590.824 748.7 590.155 747.998 589.325L679.973 504.393C674.808 497.978 671.995 489.99 672 481.756V448.001C671.998 443.274 672.927 438.593 674.736 434.225C676.544 429.858 679.196 425.889 682.539 422.546C685.883 419.202 689.853 416.55 694.223 414.741C698.592 412.931 703.276 412 708.006 412ZM921.63 464.879V448.001C921.635 442.305 919.379 436.839 915.357 432.802C911.335 428.766 905.875 426.488 900.175 426.469H708.006C702.301 426.484 696.835 428.758 692.806 432.795C688.777 436.831 686.515 442.3 686.515 448.001V481.793C686.58 486.722 688.289 491.489 691.371 495.338L751.731 570.726C759.278 555.255 771.03 542.218 785.642 533.107C800.255 523.996 817.138 519.179 834.361 519.206C835.104 519.206 835.775 519.206 836.608 519.206C836.928 519.183 837.249 519.183 837.569 519.206H900.175C902.254 519.192 904.321 518.893 906.318 518.319C909.447 517.235 912.329 515.542 914.799 513.339C916.953 511.352 918.671 508.94 919.847 506.257C921.023 503.574 921.63 500.676 921.63 497.747V466.653C921.577 466.397 921.547 466.136 921.54 465.875C921.535 465.54 921.565 465.207 921.63 464.879Z" fill="#4EBA66" fill-opacity="0.08"/>
<path d="M802.509 273.012C792.891 272.996 783.657 276.78 776.818 283.54C769.979 290.301 766.091 299.489 766 309.103V309.791C766.041 317.125 768.296 324.276 772.47 330.307C776.645 336.338 782.544 340.969 789.396 343.592C796.247 346.215 803.732 346.708 810.868 345.008C818.005 343.307 824.462 339.491 829.393 334.06C829.565 333.913 829.651 333.79 829.626 333.79L829.835 333.532L829.946 333.397L830.081 333.249L832.158 330.607C832.328 330.46 832.477 330.291 832.601 330.103C836.36 324.626 838.552 318.225 838.938 311.594C839.325 304.962 837.892 298.35 834.795 292.473C831.698 286.596 827.054 281.676 821.364 278.244C815.674 274.812 809.154 272.999 802.509 273V273.012ZM822.177 327.437C818.569 331.39 813.855 334.167 808.647 335.407C803.439 336.646 797.979 336.29 792.976 334.385C787.973 332.48 783.659 329.115 780.596 324.727C777.532 320.338 775.86 315.13 775.797 309.779V309.201C775.976 302.218 778.884 295.584 783.899 290.72C788.914 285.855 795.636 283.149 802.623 283.181C809.61 283.214 816.307 285.981 821.277 290.892C826.247 295.802 829.094 302.463 829.208 309.447C829.209 314.78 827.598 319.988 824.586 324.389L822.374 327.167L822.202 327.425L822.177 327.437Z" fill="#00589B" fill-opacity="0.05"/>
<path d="M793.007 0.00909929C785.892 -0.00321104 779.061 2.79606 774.002 7.79685C768.944 12.7976 766.067 19.5945 766 26.7062V27.2153C766.03 32.6405 767.698 37.9302 770.786 42.3916C773.874 46.8531 778.238 50.2782 783.307 52.2186C788.375 54.1589 793.911 54.5239 799.19 53.2658C804.47 52.0078 809.246 49.1852 812.893 45.1679C813.021 45.0588 813.084 44.9679 813.066 44.9679L813.221 44.777L813.302 44.677L813.402 44.568L814.939 42.6136C815.065 42.5049 815.175 42.3795 815.267 42.2409C818.047 38.1888 819.668 33.4544 819.954 28.5487C820.24 23.643 819.181 18.7523 816.889 14.4047C814.598 10.057 811.163 6.41749 806.954 3.8789C802.745 1.3403 797.922 -0.000919843 793.007 4.73307e-07V0.00909929ZM807.556 40.2684C804.887 43.193 801.399 45.2471 797.547 46.1637C793.695 47.0804 789.656 46.8171 785.955 45.4082C782.254 43.9992 779.063 41.5098 776.797 38.2635C774.531 35.0173 773.294 31.1645 773.247 27.2062V26.779C773.379 21.6137 775.531 16.7057 779.24 13.1076C782.95 9.50948 787.922 7.5077 793.091 7.53149C798.26 7.55527 803.213 9.60274 806.89 13.2348C810.566 16.8669 812.672 21.7944 812.757 26.9608C812.758 30.9055 811.566 34.7583 809.338 38.0141L807.701 40.0685L807.574 40.2593L807.556 40.2684Z" fill="#4EBA66" fill-opacity="0.08"/>
<path d="M510.009 430.012C500.259 429.996 490.899 433.832 483.966 440.685C477.034 447.538 473.092 456.852 473 466.597V467.295C473.041 474.73 475.327 481.978 479.559 488.092C483.791 494.206 489.771 498.9 496.716 501.559C503.662 504.218 511.248 504.718 518.483 502.994C525.718 501.27 532.263 497.402 537.261 491.897C537.436 491.747 537.523 491.623 537.498 491.623L537.71 491.361L537.822 491.224L537.959 491.075L540.065 488.396C540.237 488.247 540.388 488.076 540.513 487.886C544.324 482.333 546.545 475.845 546.937 469.122C547.329 462.4 545.877 455.698 542.737 449.74C539.598 443.782 534.89 438.794 529.122 435.316C523.354 431.837 516.745 429.999 510.009 430V430.012ZM529.946 485.183C526.289 489.19 521.51 492.005 516.231 493.261C510.952 494.518 505.417 494.157 500.346 492.226C495.274 490.295 490.901 486.884 487.796 482.435C484.69 477.987 482.995 472.707 482.931 467.283V466.697C483.112 459.619 486.061 452.893 491.144 447.962C496.228 443.032 503.042 440.288 510.125 440.321C517.208 440.354 523.996 443.159 529.034 448.137C534.072 453.114 536.958 459.866 537.074 466.946C537.075 472.352 535.442 477.632 532.389 482.093L530.146 484.909L529.971 485.17L529.946 485.183Z" fill="#EAEAEA" fill-opacity="0.2"/>
</svg>

<svg width="1310" height="838" fill="none" xmlns="http://www.w3.org/2000/svg"><path opacity=".8" d="M1196.01 688.019a56.929 56.929 0 00-40.12 16.441 56.874 56.874 0 00-16.89 39.92v1.074a56.884 56.884 0 0010.1 32.039 56.896 56.896 0 0026.44 20.746 56.89 56.89 0 0062.46-14.885c.27-.23.4-.422.36-.422l.33-.403.17-.211.21-.23 3.25-4.126c.26-.229.49-.494.69-.787a56.902 56.902 0 009.89-28.906 56.847 56.847 0 00-6.47-29.859 56.943 56.943 0 00-20.97-22.221 57.018 57.018 0 00-29.45-8.189v.019zm30.72 84.992a41.667 41.667 0 01-45.6 10.851 41.666 41.666 0 01-19.34-15.083 41.68 41.68 0 01-7.49-23.344v-.902a41.7 41.7 0 0141.89-40.633 41.72 41.72 0 0129.13 12.04 41.708 41.708 0 0112.39 28.977c0 8.328-2.52 16.462-7.22 23.335l-3.45 4.337-.27.403-.04.019z" fill="#4EBA66" fill-opacity=".08"/><path opacity=".3" d="M82.014 83.02a56.928 56.928 0 00-40.12 16.44A56.887 56.887 0 0025 139.38v1.074a56.842 56.842 0 0010.104 32.039 56.873 56.873 0 0026.432 20.746 56.9 56.9 0 0062.461-14.885c.269-.23.403-.422.364-.422l.327-.403.173-.211.211-.23 3.244-4.126c.265-.229.498-.494.691-.787a56.933 56.933 0 003.426-58.765 56.958 56.958 0 00-20.975-22.221A56.988 56.988 0 0082.014 83v.02zm30.714 84.991a41.657 41.657 0 01-21.129 12.446 41.658 41.658 0 01-43.806-16.678 41.635 41.635 0 01-7.493-23.344v-.902a41.692 41.692 0 0112.652-28.861 41.722 41.722 0 0158.371.268 41.695 41.695 0 0112.386 28.977 41.313 41.313 0 01-7.218 23.335l-3.455 4.337-.269.403-.039.019z" fill="#4EBA66" fill-opacity=".1"/><path opacity=".6" d="M1148.99 766H956.915a36.02 36.02 0 01-25.408-10.577A35.973 35.973 0 01921 729.999v-49.746a35.802 35.802 0 0111.398-26.149l.235-.218a38.888 38.888 0 0112.794-7.605l.598-.254a35.716 35.716 0 0110.872-1.684h65.813a77.493 77.493 0 0045.49-14.74 77.36 77.36 0 0028.15-38.628 7.251 7.251 0 012.14-3.271 7.204 7.204 0 013.52-1.691c.19-.017.38-.017.58 0h.7c1.09.004 2.17.244 3.15.704a7.442 7.442 0 012.56 1.958l68.03 84.932a36.057 36.057 0 017.97 22.637v33.755c0 4.727-.93 9.408-2.74 13.776a35.897 35.897 0 01-7.8 11.679 35.931 35.931 0 01-11.68 7.805 36.051 36.051 0 01-13.79 2.741zm-213.62-52.879v16.878a21.508 21.508 0 006.273 15.199 21.536 21.536 0 0015.182 6.333h192.165a21.529 21.529 0 0015.2-6.326 21.528 21.528 0 006.3-15.206v-33.792a22.185 22.185 0 00-4.86-13.545l-60.36-75.388a91.763 91.763 0 01-82.63 51.52h-2.25c-.32.023-.64.023-.96 0h-62.605a22.795 22.795 0 00-6.143.887 25.072 25.072 0 00-8.481 4.98 21.229 21.229 0 00-6.831 15.592v31.094c.053.256.083.517.09.778.005.335-.025.668-.09.996z" fill="#00589B" fill-opacity=".05"/><path opacity=".3" d="M1273.99 13h-192.07a36.011 36.011 0 00-25.41 10.578A35.966 35.966 0 001046 49v49.746a35.869 35.869 0 002.98 14.257 35.831 35.831 0 008.42 11.892l.23.218a38.915 38.915 0 0012.8 7.605l.59.254a35.786 35.786 0 0010.88 1.684h65.81a77.493 77.493 0 0145.49 14.74 77.36 77.36 0 0128.15 38.628 7.251 7.251 0 002.14 3.271c.99.875 2.21 1.46 3.52 1.691.19.017.38.017.58 0h.7a7.492 7.492 0 003.15-.704 7.442 7.442 0 002.56-1.958l68.03-84.932a36.058 36.058 0 007.97-22.637V49.001c0-4.727-.93-9.408-2.74-13.776a35.897 35.897 0 00-7.8-11.68 35.952 35.952 0 00-11.68-7.804A36.062 36.062 0 001273.99 13zm-213.62 52.879V49a21.49 21.49 0 016.27-15.199 21.527 21.527 0 0115.18-6.333h192.17c5.71.015 11.18 2.29 15.2 6.326a21.528 21.528 0 016.3 15.206v33.792a22.186 22.186 0 01-4.86 13.545l-60.36 75.388a91.763 91.763 0 00-82.63-51.52h-2.25a6.687 6.687 0 00-.96 0h-62.61a22.842 22.842 0 01-6.14-.887 25.058 25.058 0 01-8.48-4.98 21.348 21.348 0 01-5.05-7.082 21.299 21.299 0 01-1.78-8.51V67.653c.05-.256.08-.517.09-.778.01-.335-.03-.668-.09-.996zM36.006 658h192.079a36.02 36.02 0 0125.408 10.577A35.973 35.973 0 01264 694.001v49.746a35.802 35.802 0 01-11.398 26.149l-.235.218a38.888 38.888 0 01-12.794 7.605l-.598.254a35.716 35.716 0 01-10.872 1.684h-65.814a77.483 77.483 0 00-45.488 14.74 77.403 77.403 0 00-28.155 38.628 7.242 7.242 0 01-5.653 4.962 3.302 3.302 0 01-.58 0h-.707a7.506 7.506 0 01-5.708-2.662L7.973 750.393A36.06 36.06 0 010 727.756v-33.755a35.966 35.966 0 0110.54-25.455A36.015 36.015 0 0136.005 658zm213.624 52.879v-16.878a21.508 21.508 0 00-6.273-15.199 21.536 21.536 0 00-15.182-6.333H36.005a21.553 21.553 0 00-15.2 6.326 21.524 21.524 0 00-6.29 15.206v33.792a22.138 22.138 0 004.856 13.545l60.36 75.388a91.73 91.73 0 0133.911-37.619 91.812 91.812 0 0148.719-13.901h2.247a6.7 6.7 0 01.961 0h62.606a22.795 22.795 0 006.143-.887 25.072 25.072 0 008.481-4.98 21.229 21.229 0 006.831-15.592v-31.094a4.428 4.428 0 01-.09-.778 4.752 4.752 0 01.09-.996z" fill="#4EBA66" fill-opacity=".1"/><path opacity=".6" d="M708.006 412h192.079a36.02 36.02 0 0125.408 10.577A35.973 35.973 0 01936 448.001v49.746a35.802 35.802 0 01-11.398 26.149l-.235.218a38.888 38.888 0 01-12.794 7.605l-.598.254a35.716 35.716 0 01-10.872 1.684h-65.814a77.483 77.483 0 00-45.488 14.74 77.404 77.404 0 00-28.155 38.628 7.254 7.254 0 01-5.653 4.962 3.304 3.304 0 01-.58 0h-.707a7.506 7.506 0 01-5.708-2.662l-68.025-84.932A36.06 36.06 0 01672 481.756v-33.755a35.962 35.962 0 0110.539-25.455A36.013 36.013 0 01708.006 412zm213.624 52.879v-16.878a21.508 21.508 0 00-6.273-15.199 21.536 21.536 0 00-15.182-6.333H708.006a21.553 21.553 0 00-15.2 6.326 21.523 21.523 0 00-6.291 15.206v33.792a22.138 22.138 0 004.856 13.545l60.36 75.388a91.73 91.73 0 0133.911-37.619 91.812 91.812 0 0148.719-13.901h2.247a6.7 6.7 0 01.961 0h62.606a22.795 22.795 0 006.143-.887 25.072 25.072 0 008.481-4.98 21.229 21.229 0 006.831-15.592v-31.094a4.428 4.428 0 01-.09-.778 4.752 4.752 0 01.09-.996z" fill="#4EBA66" fill-opacity=".08"/><path d="M802.509 273.012a36.459 36.459 0 00-25.691 10.528A36.43 36.43 0 00766 309.103v.688a36.408 36.408 0 0023.396 33.801 36.43 36.43 0 0039.997-9.532c.172-.147.258-.27.233-.27l.209-.258.111-.135.135-.148 2.077-2.642c.17-.147.319-.316.443-.504a36.456 36.456 0 002.194-37.63 36.477 36.477 0 00-13.431-14.229A36.497 36.497 0 00802.509 273v.012zm19.668 54.425a26.683 26.683 0 01-41.581-2.71 26.661 26.661 0 01-4.799-14.948v-.578a26.697 26.697 0 018.102-18.481 26.715 26.715 0 0137.378.172 26.695 26.695 0 017.931 18.555 26.446 26.446 0 01-4.622 14.942l-2.212 2.778-.172.258-.025.012z" fill="#00589B" fill-opacity=".05"/><path d="M793.007.01a26.967 26.967 0 00-19.005 7.787A26.949 26.949 0 00766 26.707v.508a26.927 26.927 0 0017.307 25.004 26.95 26.95 0 0029.586-7.051c.128-.11.191-.2.173-.2l.155-.191.081-.1.1-.109 1.537-1.954c.126-.11.236-.234.328-.373a26.979 26.979 0 001.622-27.836A26.98 26.98 0 00793.007 0v.01zm14.549 40.258a19.736 19.736 0 01-30.759-2.005 19.727 19.727 0 01-3.55-11.057v-.427a19.751 19.751 0 015.993-13.671 19.764 19.764 0 0127.65.127 19.752 19.752 0 015.867 13.726 19.564 19.564 0 01-3.419 11.053l-1.637 2.054-.127.191-.018.01z" fill="#4EBA66" fill-opacity=".08"/><path d="M510.009 430.012a36.958 36.958 0 00-26.043 10.673A36.928 36.928 0 00473 466.597v.698a36.896 36.896 0 006.559 20.797 36.922 36.922 0 0038.924 14.902 36.922 36.922 0 0018.778-11.097c.175-.15.262-.274.237-.274l.212-.262.112-.137.137-.149 2.106-2.679c.172-.149.323-.32.448-.51a36.962 36.962 0 00-11.391-52.57A36.996 36.996 0 00510.009 430v.012zm19.937 55.171a27.043 27.043 0 01-29.6 7.043 27.03 27.03 0 01-17.415-24.943v-.586a27.068 27.068 0 018.213-18.735 27.086 27.086 0 0137.89.175 27.061 27.061 0 018.04 18.809 26.81 26.81 0 01-4.685 15.147l-2.243 2.816-.175.261-.025.013z" fill="#EAEAEA" fill-opacity=".2"/></svg>
